X:1
T:Title
%%score { ( 1 4 ) | ( 2 3 ) }
L:1/8
M:4/4
K:D
V:1 treble nm="Grand Piano"
V:4 treble 
V:2 bass 
V:3 bass 
V:1
 z4 z2[Q:1/4=100] D2 | F3 G F2 ED | A3 B A2 F2 | [CE]3 [C^D] [CE][EG][=DF][CE] |[M:3/4] F6 | %5
[M:1/4] z E |[M:4/4] F3 G F2 ED | A3 B A2 F2 | [CE]3 [C^D] [CE][EG][=DF][CE] |[M:3/4] D6 | %10
[M:1/4] A2 |[M:4/4] d3 e d2 B2 | [FA]3 [EG] F2 A2 | d3 e dB[DFA][A,DF] |[M:3/4][K:bass] [A,CE]6 | %15
[M:1/4] D2[K:treble] |[M:4/4] F3 G F2 ED | A3 B A2 F2 | [CE]3 [C^D] [CE][EG][=DF][CE] | %19
[M:3/4] D6 |] %20
V:2
 z4 z2 [D,F,]2 | [D,A,D]3 [D,B,D] [D,A,D]2 [G,D]F, | [D,F,D]3 [D,G,D] [D,F,D]2 [D,A,D]2 | %3
 [A,,A,]3 [A,,A,] [A,,A,][A,,A,][A,,A,][A,,A,] |[M:3/4] [D,A,D]6 |[M:1/4] F,G, | %6
[M:4/4] [D,A,D]3 [D,B,D] [D,A,D]2 [G,D]F, | [D,F,D]3 [D,G,D] [D,F,D]2 [D,A,D]2 | %8
 [A,,A,]3 [A,,A,] [A,,A,][A,,A,][A,,A,][A,,A,] |[M:3/4] [D,F,]6 |[M:1/4] [F,D]2 | %11
[M:4/4][K:treble] [G,B,G]3 [G,^A,G] [G,B,G]2 [G,DG]2 | [D,D]3 [D,D] [D,A,D]2 [F,A,D]2 | %13
 [G,B,D]3[K:treble] [G,^A,D] [G,B,G][G,DG][K:bass]D,D, |[M:3/4] A,,6 |[M:1/4] z G, | %16
[M:4/4] [D,A,D]3 [D,B,D] [D,A,D]2 [G,D]F, | [D,F,D]3 [D,G,D] [D,F,D]2 [D,A,D]2 | %18
 [A,,A,]3 [A,,A,] [A,,A,][A,,A,][A,,A,][A,,G,] |[M:3/4] [D,F,]6 |] %20
V:3
 x8 | z4 z2 D,2 | x8 | x8 |[M:3/4] x6 |[M:1/4] D,2 |[M:4/4] z4 z2 D,2 | x8 | x8 |[M:3/4] x6 | %10
[M:1/4] x2 |[M:4/4][K:treble] x8 | x8 | x3[K:treble] x3[K:bass] x2 |[M:3/4] x6 |[M:1/4] D,2 | %16
[M:4/4] z4 z2 D,2 | x8 | x8 |[M:3/4] x6 |] %20
V:4
 x8 | x8 | x8 | x8 |[M:3/4] x6 |[M:1/4] D2 |[M:4/4] x8 | x8 | x8 |[M:3/4] x6 |[M:1/4] x2 | %11
[M:4/4] x8 | x8 | x8 |[M:3/4][K:bass] x6 |[M:1/4] F,[K:treble]E |[M:4/4] x8 | x8 | x8 | %19
[M:3/4] x6 |] %20

